X:120
T:Mermaid's Song
M:6/8
L:1/8
Q:1/8=144
K:A Mixolydian
"A"A2A c2d|e2d c<e- e|A2A c2d|e2d c3|"G"B2B B2d|e2d B<G- G|"A"A2A c>de|"G"B2A "A"A3:|!
"A"c2e a2e|"D"f2d "A"e<A- A|"A"c2e a2e|"D"f<d- d "A"e3|"A"e2d c2A|"G"d2c B<G- G|"A"A2A c>de|"G"B2A "A"A3:|

